; G-Code generated by Simplify3D(R) Version 3.0.2
; Apr 22, 2016 at 8:34:35 PM
; Settings Summary
;   processName,Process1
;   applyToModels,BurnItDown
;   profileName,Tarantula (modified)
;   profileVersion,2016-04-21 15:03:03
;   baseProfile,Default
;   printMaterial,PLA
;   printQuality,High
;   printExtruders,
;   extruderName,Extruder 1
;   extruderToolheadNumber,0
;   extruderDiameter,0.4
;   extruderAutoWidth,0
;   extruderWidth,0.4
;   extrusionMultiplier,1.2
;   extruderUseRetract,1
;   extruderRetractionDistance,5
;   extruderExtraRestartDistance,0
;   extruderRetractionZLift,0.2
;   extruderRetractionSpeed,9600
;   extruderUseCoasting,1
;   extruderCoastingDistance,0.25
;   extruderUseWipe,0
;   extruderWipeDistance,5
;   primaryExtruder,0
;   layerHeight,0.25
;   topSolidLayers,0
;   bottomSolidLayers,0
;   perimeterOutlines,1
;   printPerimetersInsideOut,1
;   startPointOption,1
;   startPointOriginX,0
;   startPointOriginY,0
;   startPointOriginZ,300
;   sequentialIslands,0
;   spiralVaseMode,1
;   firstLayerHeightPercentage,75
;   firstLayerWidthPercentage,90
;   firstLayerUnderspeed,0.5
;   useRaft,0
;   raftExtruder,0
;   raftLayers,1
;   raftOffset,0
;   raftSeparationDistance,0.4
;   raftInfill,50
;   disableRaftBaseLayers,0
;   useSkirt,1
;   skirtExtruder,0
;   skirtLayers,1
;   skirtOutlines,3
;   skirtOffset,3
;   usePrimePillar,0
;   primePillarExtruder,999
;   primePillarWidth,12
;   primePillarLocation,7
;   primePillarSpeedMultiplier,1
;   useOozeShield,0
;   oozeShieldExtruder,999
;   oozeShieldOffset,2
;   oozeShieldOutlines,1
;   oozeShieldSidewallShape,1
;   oozeShieldSidewallAngle,30
;   oozeShieldSpeedMultiplier,1
;   infillExtruder,0
;   internalInfillPattern,Fast Honeycomb
;   externalInfillPattern,Rectilinear
;   infillPercentage,0
;   outlineOverlapPercentage,10
;   infillExtrusionWidthPercentage,100
;   minInfillLength,2
;   infillLayerInterval,1
;   infillAngles,0
;   overlapInfillAngles,0
;   generateSupport,0
;   supportExtruder,0
;   supportInfillPercentage,25
;   supportExtraInflation,0
;   denseSupportLayers,0
;   denseSupportInfillPercentage,25
;   supportLayerInterval,1
;   supportHorizontalPartOffset,0.3
;   supportUpperSeparationLayers,1
;   supportLowerSeparationLayers,1
;   supportType,0
;   supportGridSpacing,4
;   maxOverhangAngle,65
;   supportAngles,0
;   temperatureName,Extruder 1 Temperature,Heated Bed
;   temperatureNumber,0,0
;   temperatureSetpointCount,1,1
;   temperatureSetpointLayers,1,1
;   temperatureSetpointTemperatures,205,68
;   temperatureStabilizeAtStartup,1,1
;   temperatureHeatedBed,0,1
;   temperatureRelayBetweenLayers,0,0
;   temperatureRelayBetweenLoops,0,0
;   fanLayers,1,2
;   fanSpeeds,0,100
;   blipFanToFullPower,0
;   adjustSpeedForCooling,0
;   minSpeedLayerTime,15
;   minCoolingSpeedSlowdown,20
;   increaseFanForCooling,0
;   minFanLayerTime,45
;   maxCoolingFanSpeed,100
;   increaseFanForBridging,0
;   bridgingFanSpeed,100
;   use5D,1
;   relativeEdistances,0
;   allowEaxisZeroing,1
;   independentExtruderAxes,0
;   includeM10123,0
;   stickySupport,1
;   applyToolheadOffsets,0
;   gcodeXoffset,0
;   gcodeYoffset,0
;   gcodeZoffset,0
;   overrideMachineDefinition,1
;   machineTypeOverride,0
;   strokeXoverride,200
;   strokeYoverride,280
;   strokeZoverride,200
;   originOffsetXoverride,0
;   originOffsetYoverride,0
;   originOffsetZoverride,0
;   homeXdirOverride,-1
;   homeYdirOverride,-1
;   homeZdirOverride,-1
;   flipXoverride,1
;   flipYoverride,-1
;   flipZoverride,1
;   toolheadOffsets,0,0|0,0|0,0|0,0|0,0|0,0
;   overrideFirmwareConfiguration,1
;   firmwareTypeOverride,RepRap (Marlin/Repetier/Sprinter)
;   GPXconfigOverride,r2
;   baudRateOverride,115200
;   overridePrinterModels,0
;   printerModelsOverride
;   startingGcode,G28 ; home all axes
;   layerChangeGcode,
;   retractionGcode,
;   toolChangeGcode,
;   endingGcode,M104 S0 ; turn off extruder,M140 S0 ; turn off bed,,G91 ;relative positioning,G1 E-1 F300 ;retract the filament a bit before lifting the nozzle to release some of the pressure,G1 Z+0.5 E-5 X-20 Y-20 F{travel_speed} ;move Z up a bit and retract filament even more,G1 Z200;Move straight up,G1 X190;Move to the extruder right,G1 Y280;Move to the bed forward,,M84 ;steppers off,G90;absolute positioning
;   createX3G,0
;   celebration,0
;   celebrationSong,Random Song
;   createMB5G,0
;   postProcessing,
;   defaultSpeed,9600
;   outlineUnderspeed,1
;   solidInfillUnderspeed,0.8
;   supportUnderspeed,0.8
;   rapidXYspeed,15000
;   rapidZspeed,6000
;   minBridgingArea,10
;   bridgingExtraInflation,1
;   bridgingExtrusionMultiplier,1.4
;   bridgingSpeedMultiplier,1.25
;   filamentDiameter,1.75
;   filamentPricePerKg,25
;   filamentDensity,1.25
;   useMinPrintHeight,0
;   minPrintHeight,0
;   useMaxPrintHeight,0
;   maxPrintHeight,0
;   useDiaphragm,0
;   diaphragmLayerInterval,20
;   robustSlicing,1
;   mergeAllIntoSolid,0
;   onlyRetractWhenCrossingOutline,1
;   retractBetweenLayers,1
;   useRetractionMinTravel,0
;   retractionMinTravel,3
;   retractWhileWiping,0
;   onlyWipeOutlines,0
;   avoidCrossingOutline,1
;   maxMovementDetourFactor,2
;   toolChangeRetractionDistance,12
;   toolChangeExtraRestartDistance,-0.5
;   toolChangeRetractionSpeed,600
;   allowThinWallGapFill,1
;   thinWallAllowedOverlapPercentage,10
;   horizontalSizeCompensation,0
G90
M82
M106 S0
M140 S68
M190 S68
M104 S205 T0
M109 S205 T0
G28 ; home all axes
G92 E0
G1 E-5.0000 F9600
G1 Z0.388 F6000
; layer 1, Z = 0.1875
T0
; tool H0.250 W0.360
; skirt
G1 X80.169 Y62.483 F15000
G1 Z0.188 F6000
G1 E0.0000 F2880
G92 E0
G1 X82.875 Y59.187 E0.1915 F4800
G1 X82.908 Y59.151 E0.1937
G1 X83.150 Y58.908 E0.2091
G1 X83.187 Y58.875 E0.2113
G1 X86.482 Y56.169 E0.4027
G1 X86.522 Y56.140 E0.4049
G1 X86.808 Y55.949 E0.4204
G1 X86.850 Y55.923 E0.4226
G1 X90.612 Y53.913 E0.6141
G1 X90.656 Y53.892 E0.6163
G1 X90.974 Y53.761 E0.6318
G1 X91.020 Y53.744 E0.6340
G1 X95.101 Y52.506 E0.8255
G1 X95.149 Y52.494 E0.8277
G1 X95.486 Y52.427 E0.8431
G1 X95.535 Y52.420 E0.8453
G1 X99.779 Y52.002 E1.0368
G1 X99.828 Y52.000 E1.0390
G1 X100.171 Y52.000 E1.0544
G1 X100.220 Y52.002 E1.0566
G1 X104.464 Y52.420 E1.2481
G1 X104.513 Y52.427 E1.2503
G1 X104.850 Y52.494 E1.2658
G1 X104.898 Y52.506 E1.2680
G1 X108.979 Y53.744 E1.4595
G1 X109.025 Y53.761 E1.4617
G1 X109.343 Y53.892 E1.4771
G1 X109.387 Y53.913 E1.4793
G1 X113.149 Y55.923 E1.6708
G1 X113.191 Y55.949 E1.6730
G1 X113.477 Y56.140 E1.6885
G1 X113.517 Y56.169 E1.6907
G1 X116.812 Y58.875 E1.8822
G1 X116.849 Y58.908 E1.8844
G1 X117.091 Y59.151 E1.8998
G1 X117.124 Y59.187 E1.9019
G1 X119.830 Y62.483 E2.0934
G1 X119.859 Y62.522 E2.0956
G1 X120.051 Y62.809 E2.1111
G1 X120.076 Y62.851 E2.1133
G1 X122.086 Y66.612 E2.3048
G1 X122.107 Y66.657 E2.3070
G1 X122.239 Y66.974 E2.3224
G1 X122.255 Y67.021 E2.3247
G1 X123.493 Y71.101 E2.5161
G1 X123.505 Y71.149 E2.5183
G1 X123.572 Y71.486 E2.5338
G1 X123.579 Y71.534 E2.5360
G1 X123.998 Y75.779 E2.7275
G1 X124.000 Y75.828 E2.7297
G1 X124.000 Y76.172 E2.7451
G1 X123.998 Y76.221 E2.7473
G1 X123.579 Y80.466 E2.9388
G1 X123.572 Y80.514 E2.9410
G1 X123.505 Y80.851 E2.9565
G1 X123.493 Y80.899 E2.9587
G1 X122.255 Y84.979 E3.1501
G1 X122.239 Y85.026 E3.1523
G1 X122.107 Y85.343 E3.1678
G1 X122.086 Y85.388 E3.1700
G1 X120.076 Y89.149 E3.3615
G1 X120.051 Y89.191 E3.3637
G1 X119.859 Y89.478 E3.3792
G1 X119.830 Y89.517 E3.3814
G1 X117.124 Y92.813 E3.5728
G1 X117.091 Y92.849 E3.5750
G1 X116.849 Y93.092 E3.5904
G1 X116.812 Y93.125 E3.5926
G1 X113.517 Y95.831 E3.7841
G1 X113.477 Y95.860 E3.7863
G1 X113.191 Y96.051 E3.8018
G1 X113.149 Y96.077 E3.8040
G1 X109.387 Y98.087 E3.9955
G1 X109.343 Y98.108 E3.9977
G1 X109.025 Y98.239 E4.0131
G1 X108.979 Y98.256 E4.0153
G1 X104.898 Y99.494 E4.2068
G1 X104.850 Y99.506 E4.2090
G1 X104.513 Y99.573 E4.2245
G1 X104.464 Y99.580 E4.2267
G1 X100.220 Y99.998 E4.4182
G1 X100.171 Y100.000 E4.4204
G1 X99.828 Y100.000 E4.4358
G1 X99.779 Y99.998 E4.4380
G1 X95.535 Y99.580 E4.6295
G1 X95.486 Y99.573 E4.6317
G1 X95.149 Y99.506 E4.6471
G1 X95.101 Y99.494 E4.6493
G1 X91.020 Y98.256 E4.8408
G1 X90.974 Y98.239 E4.8430
G1 X90.656 Y98.108 E4.8585
G1 X90.612 Y98.087 E4.8607
G1 X86.850 Y96.077 E5.0522
G1 X86.808 Y96.051 E5.0544
G1 X86.522 Y95.860 E5.0698
G1 X86.482 Y95.831 E5.0721
G1 X83.187 Y93.125 E5.2635
G1 X83.150 Y93.092 E5.2657
G1 X82.908 Y92.849 E5.2811
G1 X82.875 Y92.813 E5.2833
G1 X80.169 Y89.517 E5.4748
G1 X80.139 Y89.478 E5.4770
G1 X79.948 Y89.191 E5.4925
G1 X79.923 Y89.149 E5.4947
G1 X77.913 Y85.388 E5.6862
G1 X77.892 Y85.343 E5.6884
G1 X77.760 Y85.026 E5.7038
G1 X77.744 Y84.979 E5.7060
G1 X76.506 Y80.898 E5.8975
G1 X76.494 Y80.851 E5.8997
G1 X76.427 Y80.513 E5.9152
G1 X76.420 Y80.465 E5.9174
G1 X76.002 Y76.221 E6.1088
G1 X75.999 Y76.172 E6.1111
G1 X75.999 Y75.828 E6.1265
G1 X76.002 Y75.779 E6.1287
G1 X76.420 Y71.535 E6.3202
G1 X76.427 Y71.487 E6.3224
G1 X76.494 Y71.149 E6.3378
G1 X76.506 Y71.102 E6.3400
G1 X77.744 Y67.020 E6.5315
G1 X77.760 Y66.974 E6.5337
G1 X77.892 Y66.657 E6.5491
G1 X77.913 Y66.612 E6.5514
G1 X79.923 Y62.851 E6.7429
G1 X79.948 Y62.809 E6.7451
G1 X80.028 Y62.689 E6.7515
G1 X80.139 Y62.522 F4800
G1 X80.169 Y62.483 F4800
G1 X80.484 Y62.729 F15000
G92 E0
G1 X83.178 Y59.449 E0.1906 F4800
G1 X83.198 Y59.427 E0.1919
G1 X83.426 Y59.198 E0.2064
G1 X83.448 Y59.178 E0.2077
G1 X86.728 Y56.485 E0.3983
G1 X86.752 Y56.467 E0.3997
G1 X87.022 Y56.287 E0.4142
G1 X87.047 Y56.271 E0.4156
G1 X90.792 Y54.271 E0.6062
G1 X90.818 Y54.258 E0.6075
G1 X91.118 Y54.134 E0.6221
G1 X91.145 Y54.124 E0.6234
G1 X95.208 Y52.892 E0.8140
G1 X95.236 Y52.885 E0.8153
G1 X95.554 Y52.822 E0.8299
G1 X95.584 Y52.817 E0.8312
G1 X99.808 Y52.401 E1.0218
G1 X99.838 Y52.400 E1.0231
G1 X100.161 Y52.400 E1.0377
G1 X100.191 Y52.401 E1.0390
G1 X104.415 Y52.817 E1.2296
G1 X104.445 Y52.822 E1.2309
G1 X104.763 Y52.885 E1.2455
G1 X104.791 Y52.892 E1.2468
G1 X108.853 Y54.124 E1.4374
G1 X108.881 Y54.134 E1.4387
G1 X109.181 Y54.258 E1.4533
G1 X109.207 Y54.271 E1.4546
G1 X112.951 Y56.271 E1.6452
G1 X112.977 Y56.287 E1.6466
G1 X113.247 Y56.467 E1.6611
G1 X113.271 Y56.485 E1.6625
G1 X116.551 Y59.178 E1.8531
G1 X116.573 Y59.198 E1.8544
G1 X116.801 Y59.427 E1.8689
G1 X116.821 Y59.449 E1.8702
G1 X119.515 Y62.729 E2.0608
G1 X119.532 Y62.753 E2.0621
G1 X119.713 Y63.023 E2.0767
G1 X119.728 Y63.048 E2.0780
G1 X121.729 Y66.792 E2.2687
G1 X121.742 Y66.819 E2.2700
G1 X121.866 Y67.118 E2.2845
G1 X121.875 Y67.146 E2.2859
G1 X123.108 Y71.208 E2.4764
G1 X123.115 Y71.237 E2.4778
G1 X123.178 Y71.554 E2.4923
G1 X123.182 Y71.583 E2.4936
G1 X123.599 Y75.808 E2.6843
G1 X123.600 Y75.838 E2.6856
G1 X123.600 Y76.162 E2.7002
G1 X123.599 Y76.192 E2.7015
G1 X123.182 Y80.417 E2.8921
G1 X123.178 Y80.446 E2.8934
G1 X123.115 Y80.763 E2.9080
G1 X123.108 Y80.792 E2.9093
G1 X121.875 Y84.854 E3.0999
G1 X121.866 Y84.882 E3.1012
G1 X121.742 Y85.181 E3.1158
G1 X121.729 Y85.208 E3.1171
G1 X119.728 Y88.952 E3.3077
G1 X119.713 Y88.977 E3.3090
G1 X119.532 Y89.247 E3.3236
G1 X119.515 Y89.271 E3.3249
G1 X116.821 Y92.551 E3.5155
G1 X116.801 Y92.573 E3.5168
G1 X116.573 Y92.802 E3.5314
G1 X116.551 Y92.822 E3.5327
G1 X113.271 Y95.515 E3.7233
G1 X113.247 Y95.533 E3.7246
G1 X112.977 Y95.713 E3.7392
G1 X112.951 Y95.729 E3.7405
G1 X109.207 Y97.729 E3.9311
G1 X109.181 Y97.742 E3.9324
G1 X108.881 Y97.866 E3.9470
G1 X108.853 Y97.876 E3.9483
G1 X104.791 Y99.108 E4.1389
G1 X104.763 Y99.115 E4.1403
G1 X104.445 Y99.178 E4.1548
G1 X104.415 Y99.183 E4.1561
G1 X100.191 Y99.599 E4.3467
G1 X100.161 Y99.600 E4.3481
G1 X99.838 Y99.600 E4.3626
G1 X99.808 Y99.599 E4.3639
G1 X95.584 Y99.183 E4.5545
G1 X95.554 Y99.178 E4.5559
G1 X95.236 Y99.115 E4.5704
G1 X95.208 Y99.108 E4.5717
G1 X91.145 Y97.876 E4.7623
G1 X91.118 Y97.866 E4.7637
G1 X90.818 Y97.742 E4.7782
G1 X90.792 Y97.729 E4.7795
G1 X87.047 Y95.729 E4.9702
G1 X87.022 Y95.713 E4.9715
G1 X86.752 Y95.533 E4.9861
G1 X86.728 Y95.515 E4.9874
G1 X83.448 Y92.822 E5.1780
G1 X83.426 Y92.802 E5.1793
G1 X83.198 Y92.573 E5.1938
G1 X83.178 Y92.551 E5.1951
G1 X80.484 Y89.271 E5.3857
G1 X80.467 Y89.247 E5.3871
G1 X80.286 Y88.977 E5.4016
G1 X80.271 Y88.952 E5.4030
G1 X78.270 Y85.208 E5.5936
G1 X78.257 Y85.181 E5.5949
G1 X78.133 Y84.882 E5.6095
G1 X78.124 Y84.854 E5.6108
G1 X76.891 Y80.792 E5.8014
G1 X76.884 Y80.763 E5.8027
G1 X76.821 Y80.445 E5.8173
G1 X76.817 Y80.416 E5.8186
G1 X76.401 Y76.191 E6.0092
G1 X76.399 Y76.162 E6.0105
G1 X76.399 Y75.838 E6.0251
G1 X76.401 Y75.809 E6.0264
G1 X76.817 Y71.584 E6.2170
G1 X76.821 Y71.555 E6.2183
G1 X76.884 Y71.237 E6.2329
G1 X76.891 Y71.208 E6.2342
G1 X78.124 Y67.146 E6.4248
G1 X78.133 Y67.118 E6.4261
G1 X78.257 Y66.819 E6.4407
G1 X78.270 Y66.792 E6.4420
G1 X80.271 Y63.048 E6.6326
G1 X80.286 Y63.023 E6.6340
G1 X80.344 Y62.936 E6.6386
G1 X80.467 Y62.753 F4800
G1 X80.484 Y62.729 F4800
G1 X80.800 Y62.975 F15000
G92 E0
G1 X83.481 Y59.710 E0.1897 F4800
G1 X83.487 Y59.703 E0.1901
G1 X83.702 Y59.488 E0.2038
G1 X83.709 Y59.481 E0.2042
G1 X86.975 Y56.800 E0.3939
G1 X86.983 Y56.794 E0.3944
G1 X87.236 Y56.625 E0.4081
G1 X87.245 Y56.620 E0.4085
G1 X90.972 Y54.628 E0.5983
G1 X90.980 Y54.624 E0.5987
G1 X91.262 Y54.507 E0.6124
G1 X91.271 Y54.504 E0.6128
G1 X95.314 Y53.278 E0.8025
G1 X95.324 Y53.275 E0.8030
G1 X95.623 Y53.216 E0.8167
G1 X95.632 Y53.214 E0.8171
G1 X99.838 Y52.800 E1.0068
G1 X99.847 Y52.800 E1.0073
G1 X100.152 Y52.800 E1.0209
G1 X100.161 Y52.800 E1.0214
G1 X104.366 Y53.214 E1.2111
G1 X104.376 Y53.216 E1.2115
G1 X104.675 Y53.275 E1.2252
G1 X104.685 Y53.278 E1.2256
G1 X108.728 Y54.504 E1.4154
G1 X108.737 Y54.507 E1.4158
G1 X109.019 Y54.624 E1.4295
G1 X109.027 Y54.628 E1.4299
G1 X112.754 Y56.620 E1.6197
G1 X112.763 Y56.625 E1.6201
G1 X113.016 Y56.794 E1.6338
G1 X113.024 Y56.800 E1.6342
G1 X116.290 Y59.481 E1.8240
G1 X116.297 Y59.488 E1.8244
G1 X116.512 Y59.703 E1.8380
G1 X116.518 Y59.710 E1.8385
G1 X119.199 Y62.975 E2.0282
G1 X119.205 Y62.983 E2.0286
G1 X119.375 Y63.237 E2.0423
G1 X119.380 Y63.245 E2.0428
G1 X121.372 Y66.972 E2.2325
G1 X121.376 Y66.981 E2.2329
G1 X121.492 Y67.262 E2.2466
G1 X121.496 Y67.272 E2.2471
G1 X122.722 Y71.315 E2.4368
G1 X122.724 Y71.324 E2.4372
G1 X122.784 Y71.623 E2.4509
G1 X122.785 Y71.632 E2.4513
G1 X123.200 Y75.838 E2.6411
G1 X123.200 Y75.847 E2.6415
G1 X123.200 Y76.153 E2.6552
G1 X123.200 Y76.162 E2.6556
G1 X122.785 Y80.368 E2.8454
G1 X122.784 Y80.377 E2.8458
G1 X122.724 Y80.676 E2.8595
G1 X122.722 Y80.685 E2.8599
G1 X121.496 Y84.728 E3.0496
G1 X121.492 Y84.738 E3.0501
G1 X121.376 Y85.019 E3.0637
G1 X121.372 Y85.028 E3.0642
G1 X119.380 Y88.755 E3.2539
G1 X119.375 Y88.763 E3.2544
G1 X119.205 Y89.017 E3.2681
G1 X119.199 Y89.025 E3.2685
G1 X116.518 Y92.290 E3.4582
G1 X116.512 Y92.297 E3.4586
G1 X116.297 Y92.512 E3.4723
G1 X116.290 Y92.519 E3.4727
G1 X113.024 Y95.200 E3.6624
G1 X113.016 Y95.206 E3.6629
G1 X112.763 Y95.375 E3.6766
G1 X112.754 Y95.380 E3.6770
G1 X109.027 Y97.372 E3.8668
G1 X109.019 Y97.376 E3.8672
G1 X108.737 Y97.493 E3.8809
G1 X108.728 Y97.496 E3.8813
G1 X104.685 Y98.722 E4.0710
G1 X104.675 Y98.725 E4.0715
G1 X104.376 Y98.784 E4.0852
G1 X104.366 Y98.786 E4.0856
G1 X100.161 Y99.200 E4.2753
G1 X100.152 Y99.200 E4.2758
G1 X99.847 Y99.200 E4.2894
G1 X99.838 Y99.200 E4.2899
G1 X95.632 Y98.786 E4.4796
G1 X95.623 Y98.784 E4.4800
G1 X95.324 Y98.725 E4.4937
G1 X95.314 Y98.722 E4.4941
G1 X91.271 Y97.496 E4.6839
G1 X91.262 Y97.493 E4.6843
G1 X90.980 Y97.376 E4.6980
G1 X90.972 Y97.372 E4.6984
G1 X87.245 Y95.380 E4.8882
G1 X87.236 Y95.375 E4.8886
G1 X86.983 Y95.206 E4.9023
G1 X86.975 Y95.200 E4.9027
G1 X83.709 Y92.519 E5.0925
G1 X83.702 Y92.512 E5.0929
G1 X83.487 Y92.297 E5.1065
G1 X83.481 Y92.290 E5.1070
G1 X80.800 Y89.025 E5.2967
G1 X80.794 Y89.017 E5.2971
G1 X80.624 Y88.763 E5.3108
G1 X80.619 Y88.755 E5.3113
G1 X78.627 Y85.028 E5.5010
G1 X78.623 Y85.019 E5.5014
G1 X78.507 Y84.738 E5.5151
G1 X78.503 Y84.728 E5.5156
G1 X77.277 Y80.685 E5.7053
G1 X77.275 Y80.676 E5.7057
G1 X77.215 Y80.377 E5.7194
G1 X77.214 Y80.367 E5.7198
G1 X76.800 Y76.162 E5.9096
G1 X76.799 Y76.152 E5.9100
G1 X76.799 Y75.848 E5.9237
G1 X76.800 Y75.838 E5.9241
G1 X77.214 Y71.633 E6.1138
