;FLAVOR:RepRap
;TIME:3191
M190 S45.000000
M104 S230.000000
M109 S230.000000
G21 ;metric values
G90 ;absolute positioning
M82 ;set extruder to absolute mode
M107 ;start with the fan off
G28 X0 Y0 ;move X/Y to min endstops
G28 Z0 ;move Z to min endstops
G1 Z15.0 F9000 ;move the platform down 15mm
G92 E0 ;zero the extruded length
G1 F200 E3 ;extrude 3mm of feed stock
G92 E0 ;zero the extruded length again
G1 F9000
;Put printing message on LCD screen
M117 Printing...
;Generated with Cura_SteamEngine 2.1.2
;LAYER_COUNT:250
;LAYER:0
M107
G1 F2100.000000 E-6.50000
G1 Z20.200
G0 F6000.000 X88.803 Y88.655 Z0.400
;TYPE:SKIRT
G1 Z0.200
G1 F2100.000 E0.00000
G1 F3000.00000 X89.112 Y88.435 E0.01262
G1 X89.459 Y88.283 E0.02522
G1 X90.000 Y88.200 E0.04342
G1 X110.000 Y88.200 E0.70862
G1 X110.377 Y88.240 E0.72123
G1 X110.737 Y88.358 E0.73383
G1 X111.064 Y88.548 E0.74641
G1 X111.345 Y88.803 E0.75903
G1 X111.565 Y89.112 E0.77165
G1 X111.717 Y89.459 E0.78425
G1 X111.800 Y90.000 E0.80245
G1 X111.800 Y110.000 E1.46766
G1 X111.760 Y110.377 E1.48026
G1 X111.642 Y110.737 E1.49287
G1 X111.452 Y111.064 E1.50544
G1 X111.197 Y111.345 E1.51806
G1 X110.888 Y111.565 E1.53068
G1 X110.541 Y111.717 E1.54328
G1 X110.000 Y111.800 E1.56149
G1 X90.000 Y111.800 E2.22669
G1 X89.623 Y111.760 E2.23930
G1 X89.263 Y111.642 E2.25190
G1 X88.936 Y111.452 E2.26448
G1 X88.655 Y111.197 E2.27710
G1 X88.435 Y110.888 E2.28971
G1 X88.283 Y110.541 E2.30231
G1 X88.200 Y110.000 E2.32052
G1 X88.200 Y90.000 E2.98572
G1 X88.240 Y89.623 E2.99833
G1 X88.358 Y89.263 E3.01093
G1 X88.548 Y88.936 E3.02351
G1 X88.803 Y88.655 E3.03613
G0 F6000.00000 X90.000 Y88.600
G1 F3000.000 X110.000 Y88.600 E3.70133
G1 X110.332 Y88.640 E3.71245
G1 X110.644 Y88.757 E3.72354
G1 X110.921 Y88.945 E3.73467
G1 X111.144 Y89.193 E3.74576
G1 X111.303 Y89.487 E3.75688
G1 X111.387 Y89.811 E3.76801
G1 X111.400 Y90.000 E3.77432
G1 X111.400 Y110.000 E4.43952
G1 X111.360 Y110.332 E4.45064
G1 X111.243 Y110.644 E4.46172
G1 X111.055 Y110.921 E4.47286
G1 X110.807 Y111.144 E4.48395
G1 X110.513 Y111.303 E4.49507
G1 X110.189 Y111.387 E4.50620
G1 X110.000 Y111.400 E4.51250
G1 X90.000 Y111.400 E5.17770
G1 X89.668 Y111.360 E5.18883
G1 X89.356 Y111.243 E5.19991
G1 X89.079 Y111.055 E5.21104
G1 X88.856 Y110.807 E5.22214
G1 X88.697 Y110.513 E5.23325
G1 X88.613 Y110.189 E5.24439
G1 X88.600 Y110.000 E5.25069
G1 X88.600 Y90.000 E5.91589
G1 X88.640 Y89.668 E5.92701
G1 X88.757 Y89.356 E5.93809
G1 X88.945 Y89.079 E5.94923
G1 X89.193 Y88.856 E5.96032
G1 X89.487 Y88.697 E5.97144
G1 X89.811 Y88.613 E5.98257
G1 X90.000 Y88.600 E5.98887
G0 F6000.00000 X90.000 Y89.000
G1 F3000.000 X110.000 Y89.000 E6.65407
G1 X110.279 Y89.040 E6.66345
G1 X110.536 Y89.156 E6.67283
G1 X110.751 Y89.339 E6.68222
G1 X110.905 Y89.575 E6.69159
G1 X110.988 Y89.845 E6.70099
G1 X111.000 Y90.000 E6.70616
G1 X111.000 Y110.000 E7.37136
G1 X110.960 Y110.279 E7.38073
G1 X110.844 Y110.536 E7.39011
G1 X110.661 Y110.751 E7.39950
G1 X110.425 Y110.905 E7.40888
G1 X110.155 Y110.988 E7.41827
G1 X110.000 Y111.000 E7.42344
G1 X90.000 Y111.000 E8.08864
G1 X89.721 Y110.960 E8.09802
G1 X89.464 Y110.844 E8.10740
G1 X89.249 Y110.661 E8.11679
G1 X89.095 Y110.425 E8.12616
G1 X89.012 Y110.155 E8.13555
G1 X89.000 Y110.000 E8.14073
G1 X89.000 Y90.000 E8.80593
G1 X89.040 Y89.721 E8.81530
G1 X89.156 Y89.464 E8.82468
G1 X89.339 Y89.249 E8.83407
G1 X89.575 Y89.095 E8.84344
G1 X89.845 Y89.012 E8.85284
G1 X90.000 Y89.000 E8.85801
G0 F6000.00000 X90.000 Y89.400
G1 F3000.000 X110.000 Y89.400 E9.52321
G1 X110.215 Y89.440 E9.53049
G1 X110.401 Y89.553 E9.53772
G1 X110.534 Y89.726 E9.54498
G1 X110.600 Y90.000 E9.55436
G1 X110.600 Y110.000 E10.21956
G1 X110.560 Y110.215 E10.22683
G1 X110.447 Y110.401 E10.23407
G1 X110.274 Y110.534 E10.24133
G1 X110.000 Y110.600 E10.25070
G1 X90.000 Y110.600 E10.91591
G1 X89.785 Y110.560 E10.92318
G1 X89.599 Y110.447 E10.93042
G1 X89.466 Y110.274 E10.93768
G1 X89.400 Y110.000 E10.94705
G1 X89.400 Y90.000 E11.61225
G1 X89.440 Y89.785 E11.61953
G1 X89.553 Y89.599 E11.62676
G1 X89.726 Y89.466 E11.63402
G1 X90.000 Y89.400 E11.64340
G0 F6000.00000 X89.800 Y90.000
G1 F3000.000 X89.839 Y89.881 E11.64756
G1 X90.000 Y89.800 E11.65356
G1 X110.000 Y89.800 E12.31876
G1 X110.119 Y89.839 E12.32292
G1 X110.200 Y90.000 E12.32892
G1 X110.200 Y110.000 E12.99412
G1 X110.161 Y110.119 E12.99829
G1 X110.000 Y110.200 E13.00428
G1 X90.000 Y110.200 E13.66948
G1 X89.881 Y110.161 E13.67365
G1 X89.800 Y110.000 E13.67964
G1 X89.800 Y90.000 E14.34485
G1 F2100.00000 E7.84485
G1 Z0.400
G0 F6000.000 X91.400 Y91.400 Z0.400
;TYPE:WALL-INNER
G1 Z0.200
G1 F2100.000 E14.34485
G1 F2400.00000 X108.600 Y91.400 E14.91692
G1 X108.600 Y108.600 E15.48899
G1 X91.400 Y108.600 E16.06107
G1 X91.400 Y91.400 E16.63314
G0 F6000.00000 X91.000 Y91.000
G1 F2400.000 X109.000 Y91.000 E17.23183
G1 X109.000 Y109.000 E17.83051
G1 X91.000 Y109.000 E18.42919
G1 X91.000 Y91.000 E19.02787
G0 F6000.00000 X90.600 Y90.600
G1 F2400.000 X109.400 Y90.600 E19.65316
G1 X109.400 Y109.400 E20.27845
G1 X90.600 Y109.400 E20.90374
G1 X90.600 Y90.600 E21.52903
G0 F6000.00000 X90.200 Y90.200
;TYPE:WALL-OUTER
G1 F2400.000 X109.800 Y90.200 E22.18093
G1 X109.800 Y109.800 E22.83283
G1 X90.200 Y109.800 E23.48473
G1 X90.200 Y90.200 E24.13663
G0 F6000.00000 X90.700 Y90.670
G0 X91.559 Y91.559
;TYPE:SKIN
G1 F2400.000 X108.439 Y108.439 E24.93061
G0 X108.509 Y108.509
G0 F6000.000 X108.439 Y107.874
G1 F2400.000 X92.126 Y91.560 E25.69795
G0 X92.056 Y91.490
G0 F6000.000 X92.691 Y91.560
G1 F2400.000 X108.439 Y107.308 E26.43869
G0 X108.509 Y107.378
G0 F6000.000 X108.439 Y106.742
G1 F2400.000 X93.257 Y91.560 E27.15280
G0 X93.187 Y91.490
G0 F6000.000 X93.823 Y91.560
G1 F2400.000 X108.439 Y106.177 E27.84032
G0 X108.509 Y106.247
G0 F6000.000 X108.439 Y105.611
G1 F2400.000 X94.388 Y91.560 E28.50123
G0 X94.318 Y91.490
G0 F6000.000 X94.954 Y91.560
G1 F2400.000 X108.439 Y105.045 E29.13553
G0 X108.509 Y105.115
G0 F6000.000 X108.439 Y104.479
G1 F2400.000 X95.520 Y91.560 E29.74320
G0 X95.450 Y91.490
G0 F6000.000 X96.085 Y91.560
G1 F2400.000 X108.439 Y103.914 E30.32429
G0 X108.509 Y103.984
G0 F6000.000 X108.439 Y103.348
G1 F2400.000 X96.651 Y91.560 E30.87876
G0 X96.581 Y91.490
G0 F6000.000 X97.217 Y91.560
G1 F2400.000 X108.439 Y102.782 E31.40661
G0 X108.509 Y102.852
G0 F6000.000 X108.439 Y102.217
G1 F2400.000 X97.782 Y91.560 E31.90788
G0 X97.712 Y91.490
G0 F6000.000 X98.348 Y91.560
G1 F2400.000 X108.439 Y101.651 E32.38253
G0 X108.509 Y101.721
G0 F6000.000 X108.439 Y101.085
G1 F2400.000 X98.914 Y91.560 E32.83056
G0 X98.844 Y91.490
G0 F6000.000 X99.480 Y91.560
G1 F2400.000 X108.439 Y100.520 E33.25199
G0 X108.509 Y100.590
G0 F6000.000 X108.439 Y99.954
G1 F2400.000 X100.045 Y91.560 E33.64682
G0 X99.975 Y91.490
G0 F6000.000 X100.611 Y91.560
G1 F2400.000 X108.439 Y99.388 E34.01502
G0 X108.509 Y99.458
G0 F6000.000 X108.439 Y98.823
G1 F2400.000 X101.177 Y91.560 E34.35663
G0 X101.107 Y91.490
G0 F6000.000 X101.742 Y91.560
G1 F2400.000 X108.439 Y98.257 E34.67163
G0 X108.509 Y98.327
G0 F6000.000 X108.439 Y97.691
G1 F2400.000 X102.308 Y91.560 E34.96002
G0 X102.238 Y91.490
G0 F6000.000 X102.874 Y91.560
G1 F2400.000 X108.439 Y97.126 E35.22180
G0 X108.509 Y97.196
G0 F6000.000 X108.439 Y96.560
G1 F2400.000 X103.439 Y91.560 E35.45698
G0 X103.369 Y91.490
G0 F6000.000 X104.005 Y91.560
G1 F2400.000 X108.439 Y95.994 E35.66555
G0 X108.509 Y96.064
G0 F6000.000 X108.439 Y95.429
G1 F2400.000 X104.571 Y91.560 E35.84751
G0 X104.501 Y91.490
G0 F6000.000 X105.136 Y91.560
G1 F2400.000 X108.439 Y94.863 E36.00287
G0 X108.509 Y94.933
G0 F6000.000 X108.439 Y94.297
G1 F2400.000 X105.702 Y91.560 E36.13161
G0 X105.632 Y91.490
G0 F6000.000 X106.268 Y91.560
G1 F2400.000 X108.439 Y93.731 E36.23373
G0 X108.509 Y93.801
G0 F6000.000 X108.439 Y93.166
G1 F2400.000 X106.833 Y91.560 E36.30927
G0 X106.763 Y91.490
G0 F6000.000 X107.399 Y91.560
G1 F2400.000 X108.439 Y92.600 E36.35819
G0 X108.509 Y92.670
G0 F6000.000 X108.439 Y92.034
G1 F2400.000 X107.965 Y91.560 E36.38048
G0 F6000.00000 X91.559 Y92.125
G1 F2400.000 X107.873 Y108.439 E37.14784
G0 X107.943 Y108.509
G0 F6000.000 X107.307 Y108.439
G1 F2400.000 X91.559 Y92.691 E37.88858
G0 X91.489 Y92.621
G0 F6000.000 X91.559 Y93.256
G1 F2400.000 X106.742 Y108.439 E38.60274
G0 X106.812 Y108.509
G0 F6000.000 X106.176 Y108.439
G1 F2400.000 X91.559 Y93.822 E39.29028
G0 X91.489 Y93.752
G0 F6000.000 X91.559 Y94.388
G1 F2400.000 X105.610 Y108.439 E39.95120
G0 X105.680 Y108.509
G0 F6000.000 X105.044 Y108.439
G1 F2400.000 X91.559 Y94.953 E40.58552
G0 X91.489 Y94.883
G0 F6000.000 X91.559 Y95.519
G1 F2400.000 X104.479 Y108.439 E41.19323
G0 X104.549 Y108.509
G0 F6000.000 X103.913 Y108.439
G1 F2400.000 X91.559 Y96.085 E41.77433
G0 X91.489 Y96.015
G0 F6000.000 X91.559 Y96.650
G1 F2400.000 X103.347 Y108.439 E42.32882
G0 X103.417 Y108.509
G0 F6000.000 X102.782 Y108.439
G1 F2400.000 X91.559 Y97.216 E42.85672
G0 X91.489 Y97.146
G0 F6000.000 X91.559 Y97.782
G1 F2400.000 X102.216 Y108.439 E43.35799
G0 X102.286 Y108.509
G0 F6000.000 X101.650 Y108.439
G1 F2400.000 X91.559 Y98.347 E43.83266
G0 X91.489 Y98.277
G0 F6000.000 X91.559 Y98.913
G1 F2400.000 X101.085 Y108.439 E44.28074
G0 X101.155 Y108.509
G0 F6000.000 X100.519 Y108.439
G1 F2400.000 X91.559 Y99.479 E44.70219
G0 X91.489 Y99.409
G0 F6000.000 X91.559 Y100.045
G1 F2400.000 X99.953 Y108.439 E45.09702
G0 X100.023 Y108.509
G0 F6000.000 X99.388 Y108.439
G1 F2400.000 X91.559 Y100.610 E45.46527
G0 X91.489 Y100.540
G0 F6000.000 X91.559 Y101.176
G1 F2400.000 X98.822 Y108.439 E45.80690
G0 X98.892 Y108.509
G0 F6000.000 X98.256 Y108.439
G1 F2400.000 X91.559 Y101.742 E46.12190
G0 X91.489 Y101.672
G0 F6000.000 X91.559 Y102.307
G1 F2400.000 X97.691 Y108.439 E46.41033
G0 X97.761 Y108.509
G0 F6000.000 X97.125 Y108.439
G1 F2400.000 X91.559 Y102.873 E46.67214
G0 X91.489 Y102.803
G0 F6000.000 X91.559 Y103.439
G1 F2400.000 X96.559 Y108.439 E46.90733
G0 X96.629 Y108.509
G0 F6000.000 X95.993 Y108.439
G1 F2400.000 X91.559 Y104.004 E47.11591
G0 X91.489 Y103.934
G0 F6000.000 X91.559 Y104.570
G1 F2400.000 X95.428 Y108.439 E47.29790
G0 X95.498 Y108.509
G0 F6000.000 X94.862 Y108.439
G1 F2400.000 X91.559 Y105.136 E47.45326
G0 X91.489 Y105.066
G0 F6000.000 X91.559 Y105.701
G1 F2400.000 X94.296 Y108.439 E47.58202
G0 X94.366 Y108.509
G0 F6000.000 X93.731 Y108.439
G1 F2400.000 X91.559 Y106.267 E47.68419
G0 X91.489 Y106.197
G0 F6000.000 X91.559 Y106.833
G1 F2400.000 X93.165 Y108.439 E47.75973
G0 X93.235 Y108.509
G0 F6000.000 X92.599 Y108.439
G1 F2400.000 X91.559 Y107.398 E47.80867
G0 X91.489 Y107.328
G0 F6000.000 X91.559 Y107.964
G1 F2400.000 X92.034 Y108.439 E47.83101
;LAYER:1
M106 S255.00000
G0 F6000.00000 X91.800 Y108.200 Z0.400
;TYPE:WALL-INNER
G1 F2400.000 X91.800 Y91.800 E48.37648
G1 X108.200 Y91.800 E48.92195
G1 X108.200 Y108.200 E49.46741
G1 X91.800 Y108.200 E50.01288
G0 F6000.00000 X91.400 Y108.600
G1 F2400.000 X91.400 Y91.400 E50.58495
G1 X108.600 Y91.400 E51.15703
G1 X108.600 Y108.600 E51.72910
G1 X91.400 Y108.600 E52.30118
G0 F6000.00000 X91.000 Y109.000
G1 F2400.000 X91.000 Y91.000 E52.89986
G1 X109.000 Y91.000 E53.49854
G1 X109.000 Y109.000 E54.09722
G1 X91.000 Y109.000 E54.69591
G0 F6000.00000 X90.600 Y109.400
G1 F2400.000 X90.600 Y90.600 E55.32120
G1 X109.400 Y90.600 E55.94649
G1 X109.400 Y109.400 E56.57178
G1 X90.600 Y109.400 E57.19707
G0 F6000.00000 X90.200 Y109.800
;TYPE:WALL-OUTER
G1 F2400.000 X90.200 Y90.200 E57.84897
G1 X109.800 Y90.200 E58.50087
G1 X109.800 Y109.800 E59.15276
G1 X90.200 Y109.800 E59.80466
G0 F6000.00000 X90.670 Y109.300
G0 X92.213 Y108.039
;TYPE:SKIN
G1 F2550.000 X108.039 Y92.213 E60.54907
G0 X108.109 Y92.143
G0 F6000.000 X107.727 Y91.959
G1 F2550.000 X91.959 Y107.727 E61.29075
G0 X91.889 Y107.797
G0 F6000.000 X91.959 Y107.161
G1 F2550.000 X107.161 Y91.959 E62.00580
G0 X107.231 Y91.889
G0 F6000.000 X106.595 Y91.959
G1 F2550.000 X91.959 Y106.595 E62.69424
G0 X91.889 Y106.665
G0 F6000.000 X91.959 Y106.029
G1 F2550.000 X106.029 Y91.959 E63.35605
G0 X106.099 Y91.889
G0 F6000.000 X105.464 Y91.959
G1 F2550.000 X91.959 Y105.464 E63.99128
G0 X91.889 Y105.534
G0 F6000.000 X91.959 Y104.898
G1 F2550.000 X104.898 Y91.959 E64.59989
G0 X104.968 Y91.889
G0 F6000.000 X104.332 Y91.959
G1 F2550.000 X91.959 Y104.332 E65.18188
G0 X91.889 Y104.402
G0 F6000.000 X91.959 Y103.767
G1 F2550.000 X103.767 Y91.959 E65.73729
G0 X103.837 Y91.889
G0 F6000.000 X103.201 Y91.959
G1 F2550.000 X91.959 Y103.201 E66.26608
G0 X91.889 Y103.271
G0 F6000.000 X91.959 Y102.635
G1 F2550.000 X102.635 Y91.959 E66.76825
G0 X102.705 Y91.889
G0 F6000.000 X102.070 Y91.959
G1 F2550.000 X91.959 Y102.070 E67.24384
G0 X91.889 Y102.140
G0 F6000.000 X91.959 Y101.504
G1 F2550.000 X101.504 Y91.959 E67.69280
G0 X101.574 Y91.889
G0 F6000.000 X100.938 Y91.959
G1 F2550.000 X91.959 Y100.938 E68.11515
G0 X91.889 Y101.008
G0 F6000.000 X91.959 Y100.373
G1 F2550.000 X100.373 Y91.959 E68.51092
G0 X100.443 Y91.889
G0 F6000.000 X99.807 Y91.959
G1 F2550.000 X91.959 Y99.807 E68.88006
G0 X91.889 Y99.877
G0 F6000.000 X91.959 Y99.241
G1 F2550.000 X99.241 Y91.959 E69.22259
G0 X99.311 Y91.889
G0 F6000.000 X98.676 Y91.959
G1 F2550.000 X91.959 Y98.676 E69.53853
G0 X91.889 Y98.746
G0 F6000.000 X91.959 Y98.110
G1 F2550.000 X98.110 Y91.959 E69.82786
G0 X98.180 Y91.889
G0 F6000.000 X97.544 Y91.959
G1 F2550.000 X91.959 Y97.544 E70.09056
G0 X91.889 Y97.614
G0 F6000.000 X91.959 Y96.978
G1 F2550.000 X96.978 Y91.959 E70.32664
G0 X97.048 Y91.889
G0 F6000.000 X96.413 Y91.959
G1 F2550.000 X91.959 Y96.413 E70.53614
G0 X91.889 Y96.483
G0 F6000.000 X91.959 Y95.847
G1 F2550.000 X95.847 Y91.959 E70.71902
G0 X95.917 Y91.889
G0 F6000.000 X95.281 Y91.959
G1 F2550.000 X91.959 Y95.281 E70.87528
G0 X91.889 Y95.351
G0 F6000.000 X91.959 Y94.716
G1 F2550.000 X94.716 Y91.959 E71.00496
G0 X94.786 Y91.889
G0 F6000.000 X94.150 Y91.959
G1 F2550.000 X91.959 Y94.150 E71.10801
G0 X91.889 Y94.220
G0 F6000.000 X91.959 Y93.584
G1 F2550.000 X93.584 Y91.959 E71.18445
G0 X93.654 Y91.889
G0 F6000.000 X93.019 Y91.959
G1 F2550.000 X91.959 Y93.019 E71.23431
G0 X91.889 Y93.089
G0 F6000.000 X91.959 Y92.453
G1 F2550.000 X92.453 Y91.959 E71.25754
G0 F6000.00000 X108.039 Y92.778
G1 F2550.000 X92.778 Y108.039 E71.97538
G0 X92.708 Y108.109
G0 F6000.000 X93.344 Y108.039
G1 F2550.000 X108.039 Y93.344 E72.66658
G0 X108.109 Y93.274
G0 F6000.000 X108.039 Y93.910
G1 F2550.000 X93.910 Y108.039 E73.33117
G0 X93.840 Y108.109
G0 F6000.000 X94.475 Y108.039
G1 F2550.000 X108.039 Y94.475 E73.96918
G0 X108.109 Y94.405
G0 F6000.000 X108.039 Y95.041
G1 F2550.000 X95.041 Y108.039 E74.58056
G0 X94.971 Y108.109
G0 F6000.000 X95.607 Y108.039
G1 F2550.000 X108.039 Y95.607 E75.16533
G0 X108.109 Y95.537
G0 F6000.000 X108.039 Y96.172
G1 F2550.000 X96.172 Y108.039 E75.72351
G0 X96.102 Y108.109
G0 F6000.000 X96.738 Y108.039
G1 F2550.000 X108.039 Y96.738 E76.25508
G0 X108.109 Y96.668
G0 F6000.000 X108.039 Y97.304
G1 F2550.000 X97.304 Y108.039 E76.76002
G0 X97.234 Y108.109
G0 F6000.000 X97.869 Y108.039
G1 F2550.000 X108.039 Y97.869 E77.23839
G0 X108.109 Y97.799
G0 F6000.000 X108.039 Y98.435
G1 F2550.000 X98.435 Y108.039 E77.69013
G0 X98.365 Y108.109
G0 F6000.000 X99.001 Y108.039
G1 F2550.000 X108.039 Y99.001 E78.11525
G0 X108.109 Y98.931
G0 F6000.000 X108.039 Y99.566
G1 F2550.000 X99.566 Y108.039 E78.51379
G0 X99.496 Y108.109
G0 F6000.000 X100.132 Y108.039
G1 F2550.000 X108.039 Y100.132 E78.88571
G0 X108.109 Y100.062
G0 F6000.000 X108.039 Y100.698
G1 F2550.000 X100.698 Y108.039 E79.23101
G0 X100.628 Y108.109
G0 F6000.000 X101.264 Y108.039
G1 F2550.000 X108.039 Y101.264 E79.54969
G0 X108.109 Y101.194
G0 F6000.000 X108.039 Y101.829
G1 F2550.000 X101.829 Y108.039 E79.84179
G0 X101.759 Y108.109
G0 F6000.000 X102.395 Y108.039
G1 F2550.000 X108.039 Y102.395 E80.10726
G0 X108.109 Y102.325
G0 F6000.000 X108.039 Y102.961
G1 F2550.000 X102.961 Y108.039 E80.34612
G0 X102.891 Y108.109
G0 F6000.000 X103.526 Y108.039
G1 F2550.000 X108.039 Y103.526 E80.55839
G0 X108.109 Y103.456
G0 F6000.000 X108.039 Y104.092
G1 F2550.000 X104.092 Y108.039 E80.74405
G0 X104.022 Y108.109
G0 F6000.000 X104.658 Y108.039
G1 F2550.000 X108.039 Y104.658 E80.90308
G0 X108.109 Y104.588
