;Generated with Cura_SteamEngine 15.01
; Default start code
G28 ; Home extruder
G1 Z15 F100
G90 ; Absolute positioning
M106 S255
M82 ; Extruder in absolute mode
M190 S60
; Activate all used extruder
M104 T0 S200
G92 E0 ; Reset extruder position
; Wait for all used extruders to reach temperature
M109 T0 S200
;Layer count: 66
;LAYER:0
M107
G0 F9000 X75.980 Y100.980 Z0.400
;TYPE:SKIRT
G1 F1800 X104.020 Y100.980 E1.90253
G1 X104.020 Y129.020 E3.80507
G1 X75.980 Y129.020 E5.70760
G1 X75.980 Y100.980 E7.61013
G0 F9000 X76.388 Y101.388
G1 F1800 X103.612 Y101.388 E9.45730
G1 X103.612 Y128.612 E11.30447
G1 X76.388 Y128.612 E13.15163
G1 X76.388 Y101.388 E14.99880
G0 F9000 X76.796 Y101.796
G1 F1800 X103.204 Y101.796 E16.79060
G1 X103.204 Y128.204 E18.58240
G1 X76.796 Y128.204 E20.37420
G1 X76.796 Y101.796 E22.16600
G1 F3600 E16.16600
G0 F9000 X80.612 Y105.612
;TYPE:WALL-INNER
G1 F3600 E22.16600
G1 F1800 X99.388 Y105.612 E23.43997
G1 X99.388 Y124.388 E24.71393
G1 X80.612 Y124.388 E25.98789
G1 X80.612 Y105.612 E27.26186
G0 F9000 X80.204 Y105.204
;TYPE:WALL-OUTER
G1 F1800 X99.796 Y105.204 E28.59119
G1 X99.796 Y124.796 E29.92052
G1 X80.204 Y124.796 E31.24985
G1 X80.204 Y105.204 E32.57918
G0 F9000 X80.754 Y105.853
;TYPE:SKIN
G1 F1800 X99.144 Y124.244 E34.34385
G0 F9000 X99.245 Y123.767
G1 F1800 X81.231 Y105.754 E36.07234
G0 F9000 X81.808 Y105.754
G1 F1800 X99.245 Y123.190 E37.74546
G0 F9000 X99.245 Y122.613
G1 F1800 X82.385 Y105.754 E39.36322
G0 F9000 X82.962 Y105.754
G1 F1800 X99.245 Y122.036 E40.92562
G0 F9000 X99.245 Y121.459
G1 F1800 X83.539 Y105.754 E42.43264
G0 F9000 X84.116 Y105.754
G1 F1800 X99.245 Y120.882 E43.88430
G0 F9000 X99.245 Y120.305
G1 F1800 X84.693 Y105.754 E45.28060
G0 F9000 X85.270 Y105.754
G1 F1800 X99.245 Y119.728 E46.62153
G0 F9000 X99.245 Y119.151
G1 F1800 X85.847 Y105.754 E47.90709
G0 F9000 X86.424 Y105.754
G1 F1800 X99.245 Y118.574 E49.13728
G0 F9000 X99.245 Y117.997
G1 F1800 X87.001 Y105.754 E50.31211
G0 F9000 X87.578 Y105.754
G1 F1800 X99.245 Y117.420 E51.43158
G0 F9000 X99.245 Y116.843
G1 F1800 X88.155 Y105.754 E52.49567
G0 F9000 X88.732 Y105.754
G1 F1800 X99.245 Y116.266 E53.50440
G0 F9000 X99.245 Y115.689
G1 F1800 X89.309 Y105.754 E54.45777
G0 F9000 X89.886 Y105.754
G1 F1800 X99.245 Y115.112 E55.35576
G0 F9000 X99.245 Y114.535
G1 F1800 X90.463 Y105.754 E56.19840
G0 F9000 X91.040 Y105.754
G1 F1800 X99.245 Y113.958 E56.98566
G0 F9000 X99.245 Y113.381
G1 F1800 X91.617 Y105.754 E57.71756
G0 F9000 X92.194 Y105.754
G1 F1800 X99.245 Y112.804 E58.39409
G0 F9000 X99.245 Y112.227
G1 F1800 X92.771 Y105.754 E59.01526
G0 F9000 X93.348 Y105.754
G1 F1800 X99.245 Y111.650 E59.58106
G0 F9000 X99.245 Y111.073
G1 F1800 X93.925 Y105.754 E60.09150
G0 F9000 X94.502 Y105.754
G1 F1800 X99.245 Y110.496 E60.54657
G0 F9000 X99.245 Y109.919
G1 F1800 X95.079 Y105.754 E60.94627
G0 F9000 X95.656 Y105.754
G1 F1800 X99.245 Y109.342 E61.29060
G0 F9000 X99.245 Y108.765
G1 F1800 X96.233 Y105.754 E61.57957
G0 F9000 X96.810 Y105.754
G1 F1800 X99.245 Y108.188 E61.81318
G0 F9000 X99.245 Y107.611
G1 F1800 X97.387 Y105.754 E61.99141
G0 F9000 X97.964 Y105.754
G1 F1800 X99.245 Y107.034 E62.11428
G0 F9000 X99.245 Y106.457
G1 F1800 X98.541 Y105.754 E62.18179
G0 F9000 X99.118 Y105.754
G1 F1800 X99.245 Y105.880 E62.19393
G0 F9000 X98.567 Y124.244
G1 F1800 X80.754 Y106.430 E63.90323
G0 F9000 X80.754 Y107.007
G1 F1800 X97.990 Y124.244 E65.55716
G0 F9000 X97.413 Y124.244
G1 F1800 X80.754 Y107.584 E67.15573
G0 F9000 X80.754 Y108.161
G1 F1800 X96.836 Y124.244 E68.69893
G0 F9000 X96.259 Y124.244
G1 F1800 X80.754 Y108.738 E70.18677
G0 F9000 X80.754 Y109.315
G1 F1800 X95.682 Y124.244 E71.61924
G0 F9000 X95.105 Y124.244
G1 F1800 X80.754 Y109.892 E72.99634
G0 F9000 X80.754 Y110.469
G1 F1800 X94.528 Y124.244 E74.31808
G0 F9000 X93.951 Y124.244
G1 F1800 X80.754 Y111.046 E75.58445
G0 F9000 X80.754 Y111.623
G1 F1800 X93.374 Y124.244 E76.79545
G0 F9000 X92.797 Y124.244
G1 F1800 X80.754 Y112.200 E77.95109
G0 F9000 X80.754 Y112.777
G1 F1800 X92.220 Y124.244 E79.05136
G0 F9000 X91.643 Y124.244
G1 F1800 X80.754 Y113.354 E80.09627
G0 F9000 X80.754 Y113.931
G1 F1800 X91.066 Y124.244 E81.08581
G0 F9000 X90.489 Y124.244
G1 F1800 X80.754 Y114.508 E82.01998
G0 F9000 X80.754 Y115.085
G1 F1800 X89.912 Y124.244 E82.89879
G0 F9000 X89.335 Y124.244
G1 F1800 X80.754 Y115.662 E83.72223
G0 F9000 X80.754 Y116.239
G1 F1800 X88.758 Y124.244 E84.49030
G0 F9000 X88.181 Y124.244
G1 F1800 X80.754 Y116.816 E85.20301
G0 F9000 X80.754 Y117.393
G1 F1800 X87.604 Y124.244 E85.86035
G0 F9000 X87.027 Y124.244
G1 F1800 X80.754 Y117.970 E86.46233
G0 F9000 X80.754 Y118.547
G1 F1800 X86.450 Y124.244 E87.00894
G0 F9000 X85.873 Y124.244
G1 F1800 X80.754 Y119.124 E87.50018
G0 F9000 X80.754 Y119.701
G1 F1800 X85.296 Y124.244 E87.93606
G0 F9000 X84.719 Y124.244
G1 F1800 X80.754 Y120.278 E88.31657
G0 F9000 X80.754 Y120.855
G1 F1800 X84.142 Y124.244 E88.64171
G0 F9000 X83.565 Y124.244
G1 F1800 X80.754 Y121.432 E88.91149
G0 F9000 X80.754 Y122.009
G1 F1800 X82.988 Y124.244 E89.12591
G0 F9000 X82.411 Y124.244
G1 F1800 X80.754 Y122.586 E89.28495
G0 F9000 X80.754 Y123.163
G1 F1800 X81.834 Y124.244 E89.38863
G0 F9000 X81.257 Y124.244
G1 F1800 X80.754 Y123.740 E89.43694
;LAYER:1
M106 S255
G0 F9000 X80.600 Y124.400 Z0.700
;TYPE:WALL-INNER
G1 F2220 X80.600 Y105.600 E90.37488
G1 X99.400 Y105.600 E91.31282
G1 X99.400 Y124.400 E92.25075
G1 X80.600 Y124.400 E93.18869
G0 F9000 X80.200 Y124.800
;TYPE:WALL-OUTER
G1 F1980 X80.200 Y105.200 E94.16654
G1 X99.800 Y105.200 E95.14438
G1 X99.800 Y124.800 E96.12223
G1 X80.200 Y124.800 E97.10008
G0 F9000 X80.801 Y124.259
;TYPE:SKIN
G1 F1980 X99.259 Y105.801 E98.40239
G0 F9000 X98.755 Y105.739
G1 F1980 X80.740 Y123.755 E99.67348
G0 F9000 X80.740 Y123.189
G1 F1980 X98.190 Y105.739 E100.90467
G0 F9000 X97.624 Y105.739
G1 F1980 X80.740 Y122.623 E102.09593
G0 F9000 X80.740 Y122.057
G1 F1980 X97.058 Y105.739 E103.24725
G0 F9000 X96.493 Y105.739
G1 F1980 X80.740 Y121.492 E104.35871
G0 F9000 X80.740 Y120.926
G1 F1980 X95.927 Y105.739 E105.43024
G0 F9000 X95.361 Y105.739
G1 F1980 X80.740 Y120.360 E106.46183
G0 F9000 X81.367 Y124.259
G1 F1980 X99.259 Y106.367 E107.72421
G0 F9000 X99.259 Y106.932
G1 F1980 X81.933 Y124.259 E108.94668
G0 F9000 X82.498 Y124.259
G1 F1980 X99.259 Y107.498 E110.12926
G0 F9000 X99.259 Y108.064
G1 F1980 X83.064 Y124.259 E111.27191
G0 F9000 X83.630 Y124.259
G1 F1980 X99.259 Y108.629 E112.37465
G0 F9000 X99.259 Y109.195
G1 F1980 X84.195 Y124.259 E113.43750
G0 F9000 X84.761 Y124.259
G1 F1980 X99.259 Y109.761 E114.46041
G0 F9000 X99.259 Y110.327
G1 F1980 X85.327 Y124.259 E115.44339
G0 F9000 X85.892 Y124.259
G1 F1980 X99.259 Y110.892 E116.38650
G0 F9000 X99.259 Y111.458
G1 F1980 X86.458 Y124.259 E117.28968
G0 F9000 X87.024 Y124.259
G1 F1980 X99.259 Y112.024 E118.15293
G0 F9000 X99.259 Y112.589
G1 F1980 X87.590 Y124.259 E118.97628
G0 F9000 X88.155 Y124.259
G1 F1980 X99.259 Y113.155 E119.75972
G0 F9000 X99.259 Y113.721
G1 F1980 X88.721 Y124.259 E120.50324
G0 F9000 X89.287 Y124.259
G1 F1980 X99.259 Y114.286 E121.20685
G0 F9000 X99.259 Y114.852
G1 F1980 X89.852 Y124.259 E121.87056
G0 F9000 X90.418 Y124.259
G1 F1980 X99.259 Y115.418 E122.49434
G0 F9000 X99.259 Y115.983
G1 F1980 X90.984 Y124.259 E123.07823
G0 F9000 X91.549 Y124.259
G1 F1980 X99.259 Y116.549 E123.62221
G0 F9000 X99.259 Y117.115
G1 F1980 X92.115 Y124.259 E124.12626
G0 F9000 X92.681 Y124.259
G1 F1980 X99.259 Y117.680 E124.59040
G0 F9000 X99.259 Y118.246
G1 F1980 X93.246 Y124.259 E125.01465
G0 F9000 X93.812 Y124.259
G1 F1980 X99.259 Y118.812 E125.39897
G0 F9000 X99.259 Y119.378
G1 F1980 X94.378 Y124.259 E125.74335
G0 F9000 X94.943 Y124.259
G1 F1980 X99.259 Y119.943 E126.04787
G0 F9000 X94.796 Y105.739
G1 F1980 X80.740 Y119.795 E127.03959
G0 F9000 X80.740 Y119.229
G1 F1980 X94.230 Y105.739 E127.99139
G0 F9000 X93.664 Y105.739
G1 F1980 X80.740 Y118.663 E128.90324
G0 F9000 X80.740 Y118.098
G1 F1980 X93.099 Y105.739 E129.77524
G0 F9000 X92.533 Y105.739
G1 F1980 X80.740 Y117.532 E130.60730
G0 F9000 X80.740 Y116.966
G1 F1980 X91.967 Y105.739 E131.39942
G0 F9000 X91.402 Y105.739
G1 F1980 X80.740 Y116.401 E132.15169
G0 F9000 X80.740 Y115.835
G1 F1980 X90.836 Y105.739 E132.86401
G0 F9000 X90.270 Y105.739
G1 F1980 X80.740 Y115.269 E133.53641
G0 F9000 X80.740 Y114.704
G1 F1980 X89.704 Y105.739 E134.16890
G0 F9000 X89.139 Y105.739
G1 F1980 X80.740 Y114.138 E134.76149
G0 F9000 X80.740 Y113.572
G1 F1980 X88.573 Y105.739 E135.31416
G0 F9000 X88.007 Y105.739
G1 F1980 X80.740 Y113.006 E135.82688
G0 F9000 X80.740 Y112.441
G1 F1980 X87.442 Y105.739 E136.29974
G0 F9000 X86.876 Y105.739
G1 F1980 X80.740 Y111.875 E136.73267
G0 F9000 X80.740 Y111.309
G1 F1980 X86.310 Y105.739 E137.12567
G0 F9000 X85.745 Y105.739
G1 F1980 X80.740 Y110.744 E137.47879
G0 F9000 X80.740 Y110.178
G1 F1980 X85.179 Y105.739 E137.79199
G0 F9000 X84.613 Y105.739
G1 F1980 X80.740 Y109.612 E138.06525
G0 F9000 X80.740 Y109.047
G1 F1980 X84.048 Y105.739 E138.29865
G0 F9000 X83.482 Y105.739
G1 F1980 X80.740 Y108.481 E138.49211
G0 F9000 X80.740 Y107.915
G1 F1980 X82.916 Y105.739 E138.64564
G0 F9000 X82.351 Y105.739
G1 F1980 X80.740 Y107.350 E138.75930
G0 F9000 X80.740 Y106.784
G1 F1980 X81.785 Y105.739 E138.83304
G0 F9000 X81.219 Y105.739
G1 F1980 X80.740 Y106.218 E138.86683
G0 F9000 X95.509 Y124.259
G1 F1980 X99.259 Y120.509 E139.13141
G0 F9000 X99.259 Y121.075
G1 F1980 X96.075 Y124.259 E139.35606
G0 F9000 X96.640 Y124.259
G1 F1980 X99.259 Y121.640 E139.54085
G0 F9000 X99.259 Y122.206
G1 F1980 X97.206 Y124.259 E139.68570
G0 F9000 X97.772 Y124.259
G1 F1980 X99.259 Y122.772 E139.79061
G0 F9000 X99.259 Y123.337
G1 F1980 X98.338 Y124.259 E139.85563
G0 F9000 X98.903 Y124.259
G1 F1980 X99.259 Y123.903 E139.88075
;LAYER:2
G0 F9000 X99.400 Y124.400 Z1.000
;TYPE:WALL-INNER
G1 F1200 X80.600 Y124.400 E140.81868
G1 X80.600 Y105.600 E141.75662
G1 X99.400 Y105.600 E142.69456
G1 X99.400 Y124.400 E143.63249
G0 F9000 X99.800 Y124.800
;TYPE:WALL-OUTER
G1 F1020 X80.200 Y124.800 E144.61034
G1 X80.200 Y105.200 E145.58819
G1 X99.800 Y105.200 E146.56603
G1 X99.800 Y124.800 E147.54388
G0 F9000 X99.186 Y124.259
;TYPE:FILL
G1 F1500 X99.259 Y124.186 E147.54903
G0 F9000 X98.803 Y124.259
G1 F1500 X80.739 Y106.195 E148.82355
G0 F9000 X80.740 Y108.764
G1 F1500 X83.765 Y105.739 E149.03698
G0 F9000 X85.940 Y105.739
G1 F1500 X99.260 Y119.059 E149.97677
G0 F9000 X99.259 Y118.529
G1 F1500 X93.529 Y124.259 E150.38106
G0 F9000 X93.146 Y124.259
G1 F1500 X80.739 Y111.852 E151.25644
G0 F9000 X80.740 Y114.421
G1 F1500 X89.422 Y105.739 E151.86900
G0 F9000 X91.597 Y105.739
G1 F1500 X99.260 Y113.402 E152.40967
G0 F9000 X99.259 Y112.872
G1 F1500 X87.872 Y124.259 E153.21308
G0 F9000 X87.489 Y124.259
G1 F1500 X80.739 Y117.509 E153.68933
G0 F9000 X80.740 Y120.078
G1 F1500 X95.078 Y105.739 E154.70099
G0 F9000 X97.254 Y105.739
G1 F1500 X99.260 Y107.745 E154.84252
G0 F9000 X99.259 Y107.215
G1 F1500 X82.216 Y124.259 E156.04503
G0 F9000 X81.832 Y124.259
G1 F1500 X80.739 Y123.165 E156.12218
;LAYER:3
G0 F9000 X80.600 Y124.400 Z1.300
;TYPE:WALL-INNER
G1 F1200 X80.600 Y105.600 E157.06012
G1 X99.400 Y105.600 E157.99806
G1 X99.400 Y124.400 E158.93599
G1 X80.600 Y124.400 E159.87393
G0 F9000 X80.200 Y124.800
;TYPE:WALL-OUTER
G1 F960 X80.200 Y105.200 E160.85178
G1 X99.800 Y105.200 E161.82962
G1 X99.800 Y124.800 E162.80747
G1 X80.200 Y124.800 E163.78532
G0 F9000 X80.410 Y124.500
G0 X81.832 Y124.259
;TYPE:FILL
G1 F1560 X80.739 Y123.165 E163.86247
G0 F9000 X82.216 Y124.259
G1 F1560 X99.259 Y107.215 E165.06498
G0 F9000 X99.260 Y107.745
G1 F1560 X97.254 Y105.739 E165.20652
G0 F9000 X95.078 Y105.739
G1 F1560 X80.740 Y120.078 E166.21818
G0 F9000 X80.739 Y117.509
G1 F1560 X87.489 Y124.259 E166.69443
G0 F9000 X87.872 Y124.259
G1 F1560 X99.259 Y112.872 E167.49784
G0 F9000 X99.260 Y113.402
G1 F1560 X91.597 Y105.739 E168.03851
G0 F9000 X89.422 Y105.739
G1 F1560 X80.740 Y114.421 E168.65107
G0 F9000 X80.739 Y111.852
G1 F1560 X93.146 Y124.259 E169.52645
G0 F9000 X93.529 Y124.259
G1 F1560 X99.259 Y118.529 E169.93073
G0 F9000 X99.260 Y119.059
G1 F1560 X85.940 Y105.739 E170.87053
G0 F9000 X83.765 Y105.739
G1 F1560 X80.740 Y108.764 E171.08396
G0 F9000 X80.739 Y106.195
G1 F1560 X98.803 Y124.259 E172.35847
G0 F9000 X99.186 Y124.259
G1 F1560 X99.259 Y124.186 E172.36362
;LAYER:4
G0 F9000 X99.400 Y124.400 Z1.600
;TYPE:WALL-INNER
G1 F1200 X80.600 Y124.400 E173.30156
G1 X80.600 Y105.600 E174.23949
G1 X99.400 Y105.600 E175.17743
G1 X99.400 Y124.400 E176.11537
G0 F9000 X99.800 Y124.800
;TYPE:WALL-OUTER
G1 F900 X80.200 Y124.800 E177.09321
G1 X80.200 Y105.200 E178.07106
G1 X99.800 Y105.200 E179.04891
G1 X99.800 Y124.800 E180.02676
G0 F9000 X99.186 Y124.259
;TYPE:FILL
G1 F1620 X99.259 Y124.186 E180.03191
G0 F9000 X98.803 Y124.259
G1 F1620 X80.739 Y106.195 E181.30642
G0 F9000 X80.740 Y108.764
G1 F1620 X83.765 Y105.739 E181.51985
G0 F9000 X85.940 Y105.739
G1 F1620 X99.260 Y119.059 E182.45965
G0 F9000 X99.259 Y118.529
G1 F1620 X93.529 Y124.259 E182.86393
G0 F9000 X93.146 Y124.259
G1 F1620 X80.739 Y111.852 E183.73931
G0 F9000 X80.740 Y114.421
G1 F1620 X89.422 Y105.739 E184.35187
G0 F9000 X91.597 Y105.739
G1 F1620 X99.260 Y113.402 E184.89254
G0 F9000 X99.259 Y112.872
G1 F1620 X87.872 Y124.259 E185.69595
G0 F9000 X87.489 Y124.259
G1 F1620 X80.739 Y117.509 E186.17220
G0 F9000 X80.740 Y120.078
G1 F1620 X95.078 Y105.739 E187.18386
G0 F9000 X97.254 Y105.739
G1 F1620 X99.260 Y107.745 E187.32540
G0 F9000 X99.259 Y107.215
G1 F1620 X82.216 Y124.259 E188.52791
G0 F9000 X81.832 Y124.259
G1 F1620 X80.739 Y123.165 E188.60506
;LAYER:5
G0 F9000 X80.600 Y124.400 Z1.900
;TYPE:WALL-INNER
G1 F1200 X80.600 Y105.600 E189.54300
G1 X99.400 Y105.600 E190.48093
G1 X99.400 Y124.400 E191.41887
G1 X80.600 Y124.400 E192.35680
G0 F9000 X80.200 Y124.800
;TYPE:WALL-OUTER
G1 F900 X80.200 Y105.200 E193.33465
G1 X99.800 Y105.200 E194.31250
G1 X99.800 Y124.800 E195.29035
G1 X80.200 Y124.800 E196.26819
G0 F9000 X80.410 Y124.500
G0 X81.832 Y124.259
;TYPE:FILL
G1 F1620 X80.739 Y123.165 E196.34535
G0 F9000 X82.216 Y124.259
G1 F1620 X99.259 Y107.215 E197.54786
G0 F9000 X99.260 Y107.745
G1 F1620 X97.254 Y105.739 E197.68939
G0 F9000 X95.078 Y105.739
G1 F1620 X80.740 Y120.078 E198.70105
G0 F9000 X80.739 Y117.509
G1 F1620 X87.489 Y124.259 E199.17730
G0 F9000 X87.872 Y124.259
G1 F1620 X99.259 Y112.872 E199.98071
G0 F9000 X99.260 Y113.402
G1 F1620 X91.597 Y105.739 E200.52138
G0 F9000 X89.422 Y105.739
G1 F1620 X80.740 Y114.421 E201.13394
G0 F9000 X80.739 Y111.852
G1 F1620 X93.146 Y124.259 E202.00932
G0 F9000 X93.529 Y124.259
G1 F1620 X99.259 Y118.529 E202.41361
G0 F9000 X99.260 Y119.059
G1 F1620 X85.940 Y105.739 E203.35340
G0 F9000 X83.765 Y105.739
G1 F1620 X80.740 Y108.764 E203.56683
G0 F9000 X80.739 Y106.195
G1 F1620 X98.803 Y124.259 E204.84135
G0 F9000 X99.186 Y124.259
G1 F1620 X99.259 Y124.186 E204.84650
;LAYER:6
G0 F9000 X99.400 Y124.400 Z2.200
;TYPE:WALL-INNER
G1 F1200 X80.600 Y124.400 E205.78443
G1 X80.600 Y105.600 E206.72237
G1 X99.400 Y105.600 E207.66030
G1 X99.400 Y124.400 E208.59824
G0 F9000 X99.800 Y124.800
;TYPE:WALL-OUTER
G1 F900 X80.200 Y124.800 E209.57609
G1 X80.200 Y105.200 E210.55394
G1 X99.800 Y105.200 E211.53178
G1 X99.800 Y124.800 E212.50963
G0 F9000 X99.186 Y124.259
;TYPE:FILL
G1 F1620 X99.259 Y124.186 E212.51478
G0 F9000 X98.803 Y124.259
G1 F1620 X80.739 Y106.195 E213.78929
G0 F9000 X80.740 Y108.764
G1 F1620 X83.765 Y105.739 E214.00272
G0 F9000 X85.940 Y105.739
G1 F1620 X99.260 Y119.059 E214.94252
G0 F9000 X99.259 Y118.529
G1 F1620 X93.529 Y124.259 E215.34681
G0 F9000 X93.146 Y124.259
G1 F1620 X80.739 Y111.852 E216.22219
G0 F9000 X80.740 Y114.421
G1 F1620 X89.422 Y105.739 E216.83475
G0 F9000 X91.597 Y105.739
G1 F1620 X99.260 Y113.402 E217.37541
G0 F9000 X99.259 Y112.872
G1 F1620 X87.872 Y124.259 E218.17883
G0 F9000 X87.489 Y124.259
G1 F1620 X80.739 Y117.509 E218.65508
G0 F9000 X80.740 Y120.078
G1 F1620 X95.078 Y105.739 E219.66674
G0 F9000 X97.254 Y105.739
G1 F1620 X99.260 Y107.745 E219.80827
G0 F9000 X99.259 Y107.215
G1 F1620 X82.216 Y124.259 E221.01078
G0 F9000 X81.832 Y124.259
G1 F1620 X80.739 Y123.165 E221.08793
;LAYER:7
G0 F9000 X80.600 Y124.400 Z2.500
